icons/o_fill.svg

<svg width="48" height="48" viewBox="0 0 48 48" fill="none" xmlns="http://www.w3.org/2000/svg">
<path fill-rule="evenodd" clip-rule="evenodd" d="M10 24C10 16.268 16.268 10 24 10C31.732 10 38 16.268 38 24C38 31.732 31.732 38 24 38C16.268 38 10 31.732 10 24ZM24 14C18.4772 14 14 18.4772 14 24C14 29.5228 18.4772 34 24 34C29.5228 34 34 29.5228 34 24C34 18.4772 29.5228 14 24 14Z" fill="black"/>
</svg>

<svg
  xmlns="http://www.w3.org/2000/svg"
  width="24"
  height="24"
  viewBox="0 0 24 24"
  fill="none"
  stroke="currentColor"
  stroke-width="2"
  stroke-linecap="round"
  stroke-linejoin="round"
>
  <path
    fill-rule="evenodd"
    d="M10 24c0-7.732 6.268-14 14-14s14 6.268 14 14-6.268 14-14 14-14-6.268-14-14m14-10c-5.523 0-10 4.477-10 10s4.477 10 10 10 10-4.477 10-10-4.477-10-10-10"
    clip-rule="evenodd"
  />
</svg>
